X: 24819
T: Maggie Pickins
R: strathspey
M: 4/4
K: Dmajor
|:D>CA,>C D>EF>G|A2 A>F E>D (3B,CB,|D>CA,>C D>EF>G|A>F (3EFE D2 D2:|
|:d>cA>c d>cA>G|(3EFG F>E D>C A,2|1 d>cA>c d>cA>G|(3EFG F>E D2 D2:|
[2 D>CA,>C D>E>FG|A>F (3EFE D2 D2||

